X:98
T:Ballydesmond Polka #2
C:Traditional
R:Reel
M:2/4
L:1/8
K:Ador
E>A AB | cd e2 | G>G GA | GE ED |
EA AB | cd ef | g/f/e dB | A2 A2 :|
|:a>g ab | ag ef | g>g ga | ge ed |
ea ab | ag ef | g/f/e dB | A2 A2 :|

